X: 08044
T: GOOD SOUND JIG #1
C: Bob McQuillen 27 Mar 91
B: Bob's Note Book 8 #44
%R: jig
Z: 2021 John Chambers <jc:trillian.mit.edu>
M: 6/8
L: 1/8
K: C
cA \
| GEC DCD | CEG AGE | GAc AGA | cec dcA |\
| GEC DCD | CEG Acd | ecA GEG | Acc c :|
|: ed \
| ceg age | gec dcA | GAc Acd | ege ded |\
| ceg age | gec dcA | GAc Acd | ecc c :|
%%begintext align
%% Good sound
%% is a necessity at a dance, and Debbie Knight
%% knows how to make that happen; besides that,
%% she's also a good piano player, and so you sure
%% do qualify for this tune, Debbie!
%%endtext

%%sep 1 1 500

%%sep 1 1 500

